images/MoGo.svg

<svg width="98" height="27" viewBox="0 0 98 27" fill="none" xmlns="http://www.w3.org/2000/svg">
<path d="M20.16 25.74V10.512L14.652 21.6H11.412L5.904 10.512V25.74H0V0.18H6.408L13.032 13.536L19.692 0.18H26.064V25.74H20.16Z" fill="white"/>
<path d="M39.1882 26.1C37.0282 26.1 35.1922 25.644 33.6802 24.732C32.1922 23.82 31.0523 22.62 30.2603 21.132C29.4683 19.644 29.0723 18.036 29.0723 16.308C29.0723 14.556 29.4683 12.936 30.2603 11.448C31.0523 9.96 32.2042 8.76 33.7162 7.848C35.2282 6.936 37.0522 6.48 39.1882 6.48C41.3242 6.48 43.1482 6.936 44.6602 7.848C46.1722 8.76 47.3242 9.96 48.1162 11.448C48.9082 12.936 49.3042 14.556 49.3042 16.308C49.3042 18.036 48.9082 19.644 48.1162 21.132C47.3242 22.62 46.1722 23.82 44.6602 24.732C43.1482 25.644 41.3242 26.1 39.1882 26.1ZM34.9762 16.308C34.9762 17.772 35.3722 18.96 36.1642 19.872C36.9802 20.784 37.9882 21.24 39.1882 21.24C40.3642 21.24 41.3482 20.784 42.1402 19.872C42.9562 18.96 43.3643 17.772 43.3643 16.308C43.3643 14.844 42.9562 13.656 42.1402 12.744C41.3482 11.832 40.3642 11.376 39.1882 11.376C37.9882 11.376 36.9802 11.832 36.1642 12.744C35.3722 13.656 34.9762 14.844 34.9762 16.308Z" fill="white"/>
<path d="M63.4649 25.92C61.7849 25.92 60.2009 25.608 58.7129 24.984C57.2489 24.336 55.9409 23.436 54.7889 22.284C53.6609 21.108 52.7729 19.728 52.1249 18.144C51.5009 16.536 51.1889 14.748 51.1889 12.78C51.1889 11.004 51.5009 9.348 52.1249 7.812C52.7729 6.276 53.6729 4.92 54.8249 3.744C56.0009 2.568 57.3569 1.656 58.8929 1.008C60.4529 0.335999 62.1329 0 63.9329 0C66.2849 0 68.3489 0.504001 70.1249 1.512C71.9249 2.52 73.2689 3.876 74.1569 5.58L69.7649 8.892C69.1889 7.764 68.3489 6.876 67.2449 6.228C66.1409 5.58 64.9649 5.256 63.7169 5.256C62.4209 5.256 61.2809 5.604 60.2969 6.3C59.3129 6.972 58.5449 7.896 57.9929 9.072C57.4409 10.248 57.1649 11.556 57.1649 12.996C57.1649 14.46 57.4529 15.78 58.0289 16.956C58.6049 18.108 59.3969 19.02 60.4049 19.692C61.4369 20.34 62.6249 20.664 63.9689 20.664C66.2729 20.664 68.3489 19.608 70.1969 17.496V16.668H65.2289V12.384H75.0929V25.74H70.1969V23.22C68.2529 25.02 66.0089 25.92 63.4649 25.92Z" fill="white"/>
<path d="M87.5281 26.1C85.3681 26.1 83.5321 25.644 82.0201 24.732C80.5321 23.82 79.3921 22.62 78.6001 21.132C77.8081 19.644 77.4121 18.036 77.4121 16.308C77.4121 14.556 77.8081 12.936 78.6001 11.448C79.3921 9.96 80.5441 8.76 82.0561 7.848C83.5681 6.936 85.3921 6.48 87.5281 6.48C89.6641 6.48 91.4881 6.936 93.0001 7.848C94.5121 8.76 95.6641 9.96 96.4561 11.448C97.2481 12.936 97.6441 14.556 97.6441 16.308C97.6441 18.036 97.2481 19.644 96.4561 21.132C95.6641 22.62 94.5121 23.82 93.0001 24.732C91.4881 25.644 89.6641 26.1 87.5281 26.1ZM83.3161 16.308C83.3161 17.772 83.7121 18.96 84.5041 19.872C85.3201 20.784 86.3281 21.24 87.5281 21.24C88.7041 21.24 89.6881 20.784 90.4801 19.872C91.2961 18.96 91.7041 17.772 91.7041 16.308C91.7041 14.844 91.2961 13.656 90.4801 12.744C89.6881 11.832 88.7041 11.376 87.5281 11.376C86.3281 11.376 85.3201 11.832 84.5041 12.744C83.7121 13.656 83.3161 14.844 83.3161 16.308Z" fill="white"/>
</svg>

<svg width="98" height="27" fill="none" xmlns="http://www.w3.org/2000/svg"><path d="M20.16 25.74V10.512L14.652 21.6h-3.24L5.904 10.512V25.74H0V.18h6.408l6.624 13.356L19.692.18h6.372v25.56H20.16Zm19.028.36c-2.16 0-3.996-.456-5.508-1.368-1.488-.912-2.628-2.112-3.42-3.6a10.11 10.11 0 0 1-1.188-4.824c0-1.752.396-3.372 1.188-4.86.792-1.488 1.944-2.688 3.456-3.6 1.512-.912 3.336-1.368 5.472-1.368 2.136 0 3.96.456 5.472 1.368 1.512.912 2.664 2.112 3.456 3.6.792 1.488 1.188 3.108 1.188 4.86a10.11 10.11 0 0 1-1.188 4.824c-.792 1.488-1.944 2.688-3.456 3.6-1.512.912-3.336 1.368-5.472 1.368Zm-4.212-9.792c0 1.464.396 2.652 1.188 3.564.816.912 1.824 1.368 3.024 1.368 1.176 0 2.16-.456 2.952-1.368.816-.912 1.224-2.1 1.224-3.564s-.408-2.652-1.224-3.564c-.792-.912-1.776-1.368-2.952-1.368-1.2 0-2.208.456-3.024 1.368-.792.912-1.188 2.1-1.188 3.564Zm28.489 9.612c-1.68 0-3.264-.312-4.752-.936a12.884 12.884 0 0 1-3.924-2.7c-1.128-1.176-2.016-2.556-2.664-4.14-.624-1.608-.936-3.396-.936-5.364 0-1.776.312-3.432.936-4.968a12.953 12.953 0 0 1 2.7-4.068 12.657 12.657 0 0 1 4.068-2.736C60.453.336 62.133 0 63.933 0c2.352 0 4.416.504 6.192 1.512 1.8 1.008 3.144 2.364 4.032 4.068l-4.392 3.312a6.417 6.417 0 0 0-2.52-2.664 6.857 6.857 0 0 0-3.528-.972c-1.296 0-2.436.348-3.42 1.044-.984.672-1.752 1.596-2.304 2.772-.552 1.176-.828 2.484-.828 3.924 0 1.464.288 2.784.864 3.96.576 1.152 1.368 2.064 2.376 2.736 1.032.648 2.22.972 3.564.972 2.304 0 4.38-1.056 6.228-3.168v-.828h-4.968v-4.284h9.864V25.74h-4.896v-2.52c-1.944 1.8-4.188 2.7-6.732 2.7Zm24.063.18c-2.16 0-3.996-.456-5.508-1.368-1.488-.912-2.628-2.112-3.42-3.6a10.11 10.11 0 0 1-1.188-4.824c0-1.752.396-3.372 1.188-4.86.792-1.488 1.944-2.688 3.456-3.6 1.512-.912 3.336-1.368 5.472-1.368 2.136 0 3.96.456 5.472 1.368 1.512.912 2.664 2.112 3.456 3.6.792 1.488 1.188 3.108 1.188 4.86a10.11 10.11 0 0 1-1.188 4.824c-.792 1.488-1.944 2.688-3.456 3.6-1.512.912-3.336 1.368-5.472 1.368Zm-4.212-9.792c0 1.464.396 2.652 1.188 3.564.816.912 1.824 1.368 3.024 1.368 1.176 0 2.16-.456 2.952-1.368.816-.912 1.224-2.1 1.224-3.564s-.408-2.652-1.224-3.564c-.792-.912-1.776-1.368-2.952-1.368-1.2 0-2.208.456-3.024 1.368-.792.912-1.188 2.1-1.188 3.564Z" fill="#fff"/></svg>
